#playing/_inc/system.svg

<svg viewBox="0 0 200 40" xmlns="http://www.w3.org/2000/svg"><path d="m67.167 35.02h-3.72l-.78 4.53h-5.7l3.3-18.75h9c3.4 0 5.1 1.58 5.1 4.74 0 1.5-.21 2.853-.63 4.06-.42 1.213-.883 2.177-1.39 2.89-.513.707-1.217 1.307-2.11 1.8-.887.487-1.91.73-3.07.73zm-.75-9.42h-1.32l-.81 4.62h1.32c.68 0 1.193-.073 1.54-.22.353-.153.58-.5.68-1.04.26-1.48.39-2.29.39-2.43 0-.38-.15-.63-.45-.75-.3-.12-.75-.18-1.35-.18zm19.98 9.15-.84 4.8h-11.4l3.3-18.75h5.7l-2.46 13.95zm4.47 1.83-1.17 2.97h-6l7.89-18.75h8.82l1.32 18.75h-6.03l-.12-2.97zm4.26-10.02h-.3l-2.1 5.25h2.4zm7.89-5.76h6.3l.39 6.6h.21l2.76-6.6h6.3l-7.56 13.65-.87 5.1h-5.7l.87-5.1zm19.23 18.75h-5.7l3.3-18.75h5.7zm19.38 0h-5.369l-3.06-6.66c-.08-.14-.121-.337-.121-.59 0-.247.021-.53.06-.85h-.239l-1.411 8.1h-5.7l3.3-18.75h5.371l3.059 6.66c.06.14.09.337.09.59 0 .247-.019.53-.06.85h.241l1.44-8.1h5.7zm14.01-5.52.151-.81h-1.44l.809-4.59h6.87l-1.769 10.02c-2.44.9-4.89 1.35-7.351 1.35-2.459 0-4.237-.49-5.33-1.47-1.086-.98-1.629-2.49-1.629-4.53 0-.86.14-2.13.42-3.81.599-3.48 1.659-5.99 3.179-7.53 1.521-1.54 4.041-2.31 7.56-2.31.741 0 1.683.08 2.83.24 1.153.16 2 .34 2.541.54l-1.651 4.59c-1.5-.28-2.877-.42-4.129-.42-1.248 0-2.14.1-2.681.3-.539.2-.86.6-.959 1.2l-1.47 8.49h1.89c.679 0 1.183-.073 1.509-.22.334-.153.551-.5.65-1.04z" fill="#fff"/><path d="m76.459 19.2h-5.37l-3.06-6.66c-.08-.14-.12-.337-.12-.59 0-.247.02-.53.06-.85h-.24l-1.41 8.1h-5.7l3.3-18.75h5.37l3.06 6.66c.06.14.09.337.09.59 0 .247-.02.53-.06.85h.24l1.44-8.1h5.7zm11.28-12.48-1.38 7.8h2.37c.78 0 1.36-.093 1.74-.28.38-.193.63-.63.75-1.31l1.38-7.8h-2.4c-.76 0-1.33.093-1.71.28-.38.193-.63.63-.75 1.31zm3.45-6.72c2.54 0 4.35.497 5.43 1.49 1.08.987 1.62 2.51 1.62 4.57 0 2.06-.327 4.217-.98 6.47-.647 2.247-1.677 3.993-3.09 5.24-1.407 1.253-3.467 1.88-6.18 1.88-2.707 0-4.6-.493-5.68-1.48-1.08-.993-1.62-2.52-1.62-4.58 0-.98.14-2.273.42-3.88.28-1.613.65-3.003 1.11-4.17.46-1.173 1.08-2.19 1.86-3.05 1.5-1.66 3.87-2.49 7.11-2.49zm23.76 10.92 3.21-10.47h5.97l-6.09 18.75h-7.56v-6.9h-.33l-2.49 6.9h-6.93v-18.75h5.97l-.54 10.47h.18l3.9-10.47h4.53v10.47z" fill="#fff"/><path d="m49.491 19.648-3.738-2.717c-.137-.1-.319-.114-.469-.037-.152.077-.247.232-.247.401v5.432c0 .17.095.325.247.402.064.032.134.048.205.048.092 0 .185-.03.264-.087l3.738-2.715c.118-.087.186-.221.186-.363.001-.145-.069-.279-.186-.364z" fill="#4bbad0"/><path d="m46.522 11.001c-4.972 0-9 4.028-9 9 0 4.97 4.028 8.997 9 8.997 4.971 0 9-4.027 9-8.997.001-4.972-4.029-9-9-9zm0 16.496c-4.14 0-7.497-3.355-7.497-7.496 0-4.139 3.357-7.498 7.497-7.498s7.496 3.359 7.496 7.498c.001 4.141-3.356 7.496-7.496 7.496z" fill="#ccc"/></svg>

<?xml version="1.0" encoding="utf-8"?>
<svg viewBox="0 0 200 40" xmlns="http://www.w3.org/2000/svg">
  <path d="M 67.167 35.02 L 67.167 35.02 L 63.447 35.02 L 62.667 39.55 L 56.967 39.55 L 60.267 20.8 L 69.267 20.8 L 69.267 20.8 C 72.667 20.8 74.367 22.38 74.367 25.54 L 74.367 25.54 L 74.367 25.54 C 74.367 27.04 74.157 28.393 73.737 29.6 L 73.737 29.6 L 73.737 29.6 C 73.317 30.813 72.854 31.777 72.347 32.49 L 72.347 32.49 L 72.347 32.49 C 71.834 33.197 71.13 33.797 70.237 34.29 L 70.237 34.29 L 70.237 34.29 C 69.35 34.777 68.327 35.02 67.167 35.02 Z M 66.417 25.6 L 65.097 25.6 L 64.287 30.22 L 65.607 30.22 L 65.607 30.22 C 66.287 30.22 66.8 30.147 67.147 30 L 67.147 30 L 67.147 30 C 67.5 29.847 67.727 29.5 67.827 28.96 L 67.827 28.96 L 67.827 28.96 C 68.087 27.48 68.217 26.67 68.217 26.53 L 68.217 26.53 L 68.217 26.53 C 68.217 26.15 68.067 25.9 67.767 25.78 L 67.767 25.78 L 67.767 25.78 C 67.467 25.66 67.017 25.6 66.417 25.6 L 66.417 25.6 Z M 86.397 34.75 L 85.557 39.55 L 74.157 39.55 L 77.457 20.8 L 83.157 20.8 L 80.697 34.75 L 86.397 34.75 Z M 90.867 36.58 L 89.697 39.55 L 83.697 39.55 L 91.587 20.8 L 100.407 20.8 L 101.727 39.55 L 95.697 39.55 L 95.577 36.58 L 90.867 36.58 Z M 95.127 26.56 L 94.827 26.56 L 92.727 31.81 L 95.127 31.81 L 95.127 26.56 Z M 103.017 20.8 L 109.317 20.8 L 109.707 27.4 L 109.917 27.4 L 112.677 20.8 L 118.977 20.8 L 111.417 34.45 L 110.547 39.55 L 104.847 39.55 L 105.717 34.45 L 103.017 20.8 Z M 122.247 39.55 L 116.547 39.55 L 119.847 20.8 L 125.547 20.8 L 122.247 39.55 Z M 141.627 39.55 L 136.258 39.55 L 133.198 32.89 L 133.198 32.89 C 133.118 32.75 133.077 32.553 133.077 32.3 L 133.077 32.3 L 133.077 32.3 C 133.077 32.053 133.098 31.77 133.137 31.45 L 133.137 31.45 L 132.898 31.45 L 131.487 39.55 L 125.787 39.55 L 129.087 20.8 L 134.458 20.8 L 137.517 27.46 L 137.517 27.46 C 137.577 27.6 137.607 27.797 137.607 28.05 L 137.607 28.05 L 137.607 28.05 C 137.607 28.297 137.588 28.58 137.547 28.9 L 137.547 28.9 L 137.788 28.9 L 139.228 20.8 L 144.928 20.8 L 141.627 39.55 Z M 155.637 34.03 L 155.637 34.03 L 155.788 33.22 L 154.348 33.22 L 155.157 28.63 L 162.027 28.63 L 160.258 38.65 L 160.258 38.65 C 157.818 39.55 155.368 40 152.907 40 L 152.907 40 L 152.907 40 C 150.448 40 148.67 39.51 147.577 38.53 L 147.577 38.53 L 147.577 38.53 C 146.491 37.55 145.948 36.04 145.948 34 L 145.948 34 L 145.948 34 C 145.948 33.14 146.088 31.87 146.368 30.19 L 146.368 30.19 L 146.368 30.19 C 146.967 26.71 148.027 24.2 149.547 22.66 L 149.547 22.66 L 149.547 22.66 C 151.068 21.12 153.588 20.35 157.107 20.35 L 157.107 20.35 L 157.107 20.35 C 157.848 20.35 158.79 20.43 159.937 20.59 L 159.937 20.59 L 159.937 20.59 C 161.09 20.75 161.937 20.93 162.478 21.13 L 162.478 21.13 L 160.827 25.72 L 160.827 25.72 C 159.327 25.44 157.95 25.3 156.698 25.3 L 156.698 25.3 L 156.698 25.3 C 155.45 25.3 154.558 25.4 154.017 25.6 L 154.017 25.6 L 154.017 25.6 C 153.478 25.8 153.157 26.2 153.058 26.8 L 153.058 26.8 L 151.588 35.29 L 153.478 35.29 L 153.478 35.29 C 154.157 35.29 154.661 35.217 154.987 35.07 L 154.987 35.07 L 154.987 35.07 C 155.321 34.917 155.538 34.57 155.637 34.03 Z" style="white-space: pre; fill: rgb(255, 255, 255);"/>
  <path d="M 76.459 19.2 L 71.089 19.2 L 68.029 12.54 L 68.029 12.54 C 67.949 12.4 67.909 12.203 67.909 11.95 L 67.909 11.95 L 67.909 11.95 C 67.909 11.703 67.929 11.42 67.969 11.1 L 67.969 11.1 L 67.729 11.1 L 66.319 19.2 L 60.619 19.2 L 63.919 0.45 L 69.289 0.45 L 72.349 7.11 L 72.349 7.11 C 72.409 7.25 72.439 7.447 72.439 7.7 L 72.439 7.7 L 72.439 7.7 C 72.439 7.947 72.419 8.23 72.379 8.55 L 72.379 8.55 L 72.619 8.55 L 74.059 0.45 L 79.759 0.45 L 76.459 19.2 Z M 87.739 6.72 L 87.739 6.72 L 86.359 14.52 L 88.729 14.52 L 88.729 14.52 C 89.509 14.52 90.089 14.427 90.469 14.24 L 90.469 14.24 L 90.469 14.24 C 90.849 14.047 91.099 13.61 91.219 12.93 L 91.219 12.93 L 92.599 5.13 L 90.199 5.13 L 90.199 5.13 C 89.439 5.13 88.869 5.223 88.489 5.41 L 88.489 5.41 L 88.489 5.41 C 88.109 5.603 87.859 6.04 87.739 6.72 Z M 91.189 0 L 91.189 0 L 91.189 0 C 93.729 0 95.539 0.497 96.619 1.49 L 96.619 1.49 L 96.619 1.49 C 97.699 2.477 98.239 4 98.239 6.06 L 98.239 6.06 L 98.239 6.06 C 98.239 8.12 97.912 10.277 97.259 12.53 L 97.259 12.53 L 97.259 12.53 C 96.612 14.777 95.582 16.523 94.169 17.77 L 94.169 17.77 L 94.169 17.77 C 92.762 19.023 90.702 19.65 87.989 19.65 L 87.989 19.65 L 87.989 19.65 C 85.282 19.65 83.389 19.157 82.309 18.17 L 82.309 18.17 L 82.309 18.17 C 81.229 17.177 80.689 15.65 80.689 13.59 L 80.689 13.59 L 80.689 13.59 C 80.689 12.61 80.829 11.317 81.109 9.71 L 81.109 9.71 L 81.109 9.71 C 81.389 8.097 81.759 6.707 82.219 5.54 L 82.219 5.54 L 82.219 5.54 C 82.679 4.367 83.299 3.35 84.079 2.49 L 84.079 2.49 L 84.079 2.49 C 85.579 0.83 87.949 0 91.189 0 Z M 114.949 10.92 L 118.159 0.45 L 124.129 0.45 L 118.039 19.2 L 110.479 19.2 L 110.479 12.3 L 110.149 12.3 L 107.659 19.2 L 100.729 19.2 L 100.729 0.45 L 106.699 0.45 L 106.159 10.92 L 106.339 10.92 L 110.239 0.45 L 114.769 0.45 L 114.769 10.92 L 114.949 10.92 Z" style="white-space: pre; fill: rgb(255, 255, 255);"/>
  <path d="M 49.491 19.648 L 45.753 16.931 C 45.616 16.831 45.434 16.817 45.284 16.894 C 45.132 16.971 45.037 17.126 45.037 17.295 L 45.037 22.727 C 45.037 22.897 45.132 23.052 45.284 23.129 C 45.348 23.161 45.418 23.177 45.489 23.177 C 45.581 23.177 45.674 23.147 45.753 23.09 L 49.491 20.375 C 49.609 20.288 49.677 20.154 49.677 20.012 C 49.678 19.867 49.608 19.733 49.491 19.648 Z" style="fill: rgb(75, 186, 208);"/>
  <path d="M 46.522 11.001 C 41.55 11.001 37.522 15.029 37.522 20.001 C 37.522 24.971 41.55 28.998 46.522 28.998 C 51.493 28.998 55.522 24.971 55.522 20.001 C 55.523 15.029 51.493 11.001 46.522 11.001 Z M 46.522 27.497 C 42.382 27.497 39.025 24.142 39.025 20.001 C 39.025 15.862 42.382 12.503 46.522 12.503 C 50.662 12.503 54.018 15.862 54.018 20.001 C 54.019 24.142 50.662 27.497 46.522 27.497 Z" style="fill: rgb(204, 204, 204);"/>
</svg>
